X:1
T:Title
%%score { ( 1 3 ) | ( 2 4 ) }
L:1/8
M:4/4
K:Ab
V:1 treble nm="Grand Piano"
V:3 treble 
V:2 bass 
V:4 bass 
V:1
 z4 z2[Q:1/4=106] [A,C]>[B,D] | [CE]2 [CE]2 [CF]2 [CE]2 | [DG]2 [DG]4 [DG]>[DA] | B2 B2 G2 E2 | %4
[M:3/4] [Ec]6 |[M:1/4] [Ec]>[Ec] |[M:4/4] [Ec]2 [CA]2 [Fd]2 [Ec]2 | B2 F4 F>F | z4 z2 F2 | %9
[M:3/4] E6 |[M:1/4] E>E |[M:4/4] d2 B2 G2 E2 | A2 c4 c>c | e2 c2 A2 F2 |[M:3/4] E6 |[M:1/4] e>e | %16
[M:4/4] e2 [Ec]2 [EA]2 [EG]2 | [EG]2 [DF]4 [FA]>[FB] | [Ec]2 [Ee]2 [EAc]3 [DAB] |[M:3/4] [CA]6 | %20
[M:1/4] E>E |[M:4/4] E2 D2 C2 B,2 | A,2 C4 C>C | D2 E2 F2 G2 |[M:3/4] A6 |[M:1/4] A>A | %26
[M:4/4] B2 c2 F2 [Fd]2 | [Fd]2 [Ec]4 [Ec]>[Ec] | B2 F2 G2 B2 |[M:3/4] [CA]6 |] %30
V:2
 z4 z2 [A,,E,]>[A,,E,] | [A,,A,]2 [A,,A,]2 [A,,A,]2 [A,,A,]2 | [B,,E,]2 [B,,E,]4 [B,,B,]>[B,,A,] | %3
 [E,G,D]2 [E,G,D]2 [E,B,D]2 [E,G,]2 |[M:3/4] [A,,A,]6 |[M:1/4] [A,,A,]>[A,,A,] | %6
[M:4/4] [A,,A,]2 [A,,A,]2 [A,,A,]2 [A,,A,]2 | [D,F,D]2 [D,A,D]4 [D,A,D]>[D,A,D] | %8
 [B,,B,]2 z z/ A/ B,,2 B,,2 |[M:3/4] [E,G,]6 |[M:1/4] [E,G,]>[E,G,] | %11
[M:4/4] [E,B,E]2 [E,B,E]2 [E,B,E]2 [E,G,D]2 | [A,C]2 [A,E]4 [A,E]>[A,E] | %13
 [A,CE]2 [A,E]2 [A,E]2 [A,D]2 |[M:3/4] [A,C]6 |[M:1/4] [A,,CE]>[A,,CE] | %16
[M:4/4] [A,,CE]2 [A,,A,]2 [C,A,]2 [C,A,]2 | [D,A,]2 [D,A,]4 [D,A,]>[D,A,] | [E,A,]2 [E,C]2 E,3 E, | %19
[M:3/4] A,,6 |[M:1/4] E,>E, |[M:4/4] E,2 D,2 C,2 B,,2 | A,,2 C,4 C,>C, | D,2 E,2 F,2 G,2 | %24
[M:3/4] A,6 |[M:1/4] [A,CE]>[A,CE] |[M:4/4] [E,DE]2 [A,E]2 [D,A,D]2 [D,A,]2 | %27
 [A,,A,]2 [A,,A,]4 [A,,A,]>[A,,A,] | [D,F,D]2 [D,B,D]2 [E,B,D]2 [E,G,D]2 |[M:3/4] [A,,A,]6 |] %30
V:3
 x8 | x8 | x8 | x8 |[M:3/4] x6 |[M:1/4] x2 |[M:4/4] x8 | x8 | [=DG]2 [DG]2 [A,DF]2 [A,D]->[A,DG] | %9
[M:3/4] x6 |[M:1/4] x2 |[M:4/4] x8 | x8 | x8 |[M:3/4] x6 |[M:1/4] x2 |[M:4/4] x8 | x8 | x8 | %19
[M:3/4] x6 |[M:1/4] x2 |[M:4/4] x8 | x8 | x8 |[M:3/4] x6 |[M:1/4] x2 |[M:4/4] x8 | x8 | x8 | %29
[M:3/4] x6 |] %30
V:4
 x8 | x8 | x8 | x8 |[M:3/4] x6 |[M:1/4] x2 |[M:4/4] x8 | x8 | z2 [B,,B,]2 z4 |[M:3/4] x6 | %10
[M:1/4] x2 |[M:4/4] x8 | x8 | x8 |[M:3/4] x6 |[M:1/4] x2 |[M:4/4] x8 | x8 | x8 |[M:3/4] x6 | %20
[M:1/4] x2 |[M:4/4] x8 | x8 | x8 |[M:3/4] x6 |[M:1/4] x2 |[M:4/4] x8 | x8 | x8 |[M:3/4] x6 |] %30

